X:1
T:Caithness
M:2/4
L:1/8
R:Strathspey
S:Harding's All Round Collection, No. 160 (1905)
Z:AK/Fiddler's Companion
K:G
G|Bd g2|(a/g/).f/.e/ g2|Bd g2|aAAG|Bd g2|a/g/f/e/ g2|BdAc|BGG:|
|:c|Bd dc/B/|ce ed/c/|Bd dc/B/|eAAd|Bd dc/B/|ce ed/c/|Bd Ad/c/|BGG:|

